site/.vuepress/public/assets/img/alogo.svg

<svg height="390" viewBox="0 0 390 390" width="390" xmlns="http://www.w3.org/2000/svg" xmlns:xlink="http://www.w3.org/1999/xlink"><linearGradient id="a" x1="16.654339%" x2="87.734617%" y1="9.791021%" y2="91.110596%"><stop offset="0" stop-color="#479eff"/><stop offset="1" stop-color="#2367e4"/></linearGradient><g fill="none" fill-rule="evenodd"><path d="m195.5 378c-99.6873973 0-180.5-80.812603-180.5-180.5 0-99.6873973 80.8126027-180.5 180.5-180.5 99.687397 0 180.5 80.8126027 180.5 180.5 0 99.687397-80.812603 180.5-180.5 180.5zm-90.25-160.771838c0 11.708167 1.814739 22.303899 5.44427 31.787514 3.629532 9.483615 8.546888 17.503589 14.752216 24.060162 6.205329 6.556573 13.288663 11.591009 21.250217 15.103459 7.961553 3.51245 16.274227 5.268649 24.93827 5.268649 13.34731 0 24.996761-3.980717 34.948703-11.94227 9.951941-7.961554 18.206075-17.562106 24.762648-28.801946 0 13.34731 3.336778 23.064942 10.010433 29.153189s16.332747 9.132324 28.977567 9.132324l10.888541-24.587027c-6.088247 0-11.005603-1.346419-14.752216-4.039297-3.746614-2.692878-5.619892-7.317535-5.619892-13.874108 0-1.639144.05854-3.219722.175621-4.741784.117082-1.522062.292702-2.868481.526865-4.039297l22.128325-124.691352c-6.790737-2.80996-15.39611-5.619877-25.816379-8.429837-10.420268-2.80996-22.538039-4.214919-36.353675-4.214919-16.85976 0-32.431389 2.809917-46.715352 8.429837s-26.577354 13.464274-36.88054 23.533298c-10.303187 10.069023-18.323161 22.186794-24.060163 36.353675-5.737001 14.166882-8.605459 29.67997-8.605459 46.53973zm145.492757-83.459297-9.483568 54.442703c-1.873306 11.23984-4.683224 21.601412-8.429838 31.085027-3.746613 9.483615-8.19565 17.679208-13.347243 24.587027-5.151593 6.907818-10.947049 12.234954-17.38654 15.981567-6.439492 3.746614-13.171587 5.619892-20.196487 5.619892-5.385757 0-10.595813-1.112259-15.630324-3.336811-5.034512-2.224551-9.542088-5.561329-13.522865-10.010432s-7.200474-9.893319-9.659189-16.332811-3.688054-13.874066-3.688054-22.303946c0-12.176493 1.873278-23.416165 5.619892-33.719351 3.746613-10.303187 9.132289-19.20126 16.157189-26.694487 7.0249-7.493226 15.454653-13.347222 25.289513-17.562162s20.840372-6.322378 33.016865-6.322378c6.790737 0 12.586192.409779 17.386541 1.229351 4.800348.819572 9.425004 1.931831 13.874108 3.336811z" fill="url(#a)"/><path d="m-7.47678866 321.989334c31.30776046 26.15693 71.61818386 41.898416 115.60522866 41.898416 99.642053 0 180.417898-80.775844 180.417898-180.417898 0-59.236513-28.547964-111.8052923-72.636247-144.6986915 39.612402 33.0952903 64.812626 82.8644545 64.812626 138.5194455 0 99.642054-80.775844 180.417898-180.417898 180.417898-40.4055381 0-77.7087952-13.282442-107.78164601-35.719202z" fill="#fff" opacity=".531483" transform="matrix(-.9961947 .08715574 -.08715574 -.9961947 319.163238 370.243498)"/><path d="m104 219.810662c0-16.853026 2.86152-32.359917 8.584646-46.52114 5.723125-14.161223 13.723702-26.274153 24.001968-36.339154 10.278267-10.065002 22.541924-17.906222 36.791339-23.523897 14.249415-5.617676 29.78338-8.426471 46.602362-8.426471 13.782221 0 25.870683 1.404398 36.265748 4.213235 10.395065 2.808838 18.979625 5.617633 25.753937 8.426471l-22.074803 124.641544c-.233597 1.170349-.408792 2.51623-.525591 4.037684-.116798 1.521454-.175197 3.101401-.175197 4.73989 0 6.553954 1.868748 11.176763 5.6063 13.868566 3.737551 2.691802 8.643014 4.037684 14.716535 4.037684l-10.862205 24.577205c-12.614236 0-22.249966-3.042861-28.90748-9.128676s-9.98622-15.799566-9.98622-29.141544c-6.540716 11.23535-14.774885 20.832068-24.702756 28.790441s-21.549146 11.9375-34.864174 11.9375c-8.643087 0-16.935655-1.755497-24.877952-5.266544s-15.0085-8.543472-21.198819-15.097427c-6.19032-6.553954-11.095783-14.570724-14.716536-24.050551s-5.431102-20.071326-5.431102-31.774816zm143.311024-83.5625c-4.438343-1.404419-9.051814-2.516234-13.840552-3.335478-4.788737-.819244-10.570176-1.22886-17.344488-1.22886-12.147042 0-23.125935 2.106596-32.937008 6.319852-9.811072 4.213257-18.220437 10.064914-25.228346 17.555148-7.007909 7.490233-12.380559 16.384752-16.11811 26.683823-3.737552 10.299071-5.6063 21.534253-5.6063 33.705882 0 8.426513 1.226366 15.858118 3.679134 22.295037 2.452769 6.43692 5.664679 11.878961 9.635827 16.326287 3.971149 4.447326 8.467823 7.782771 13.490158 10.006434 5.022334 2.223663 10.219789 3.335478 15.592519 3.335478 7.007909 0 13.723721-1.872531 20.147638-5.617647 6.423917-3.745117 12.205355-9.070125 17.344488-15.975184 5.139134-6.905059 9.577409-15.097379 13.314961-24.577206 3.737551-9.479827 6.540673-19.83726 8.409449-31.07261z"/></g></svg>

<?xml version="1.0" encoding="UTF-8"?>
<svg width="390px" height="390px" viewBox="0 0 390 390" version="1.1" xmlns="http://www.w3.org/2000/svg" xmlns:xlink="http://www.w3.org/1999/xlink">
    <!-- Generator: Sketch 54.1 (76490) - https://sketchapp.com -->
    <title>Artboard</title>
    <desc>Created with Sketch.</desc>
    <defs>
        <linearGradient x1="16.6543388%" y1="9.79102118%" x2="87.7346174%" y2="91.1105959%" id="linearGradient-1">
            <stop stop-color="#479EFF" offset="0%"></stop>
            <stop stop-color="#2367E4" offset="100%"></stop>
        </linearGradient>
    </defs>
    <g id="Artboard" stroke="none" stroke-width="1" fill="none" fill-rule="evenodd">
        <path d="M195.5,378 C95.8126027,378 15,297.187397 15,197.5 C15,97.8126027 95.8126027,17 195.5,17 C295.187397,17 376,97.8126027 376,197.5 C376,297.187397 295.187397,378 195.5,378 Z M105.25,217.228162 C105.25,228.936329 107.064739,239.532061 110.69427,249.015676 C114.323802,258.499291 119.241158,266.519265 125.446486,273.075838 C131.651815,279.632411 138.735149,284.666847 146.696703,288.179297 C154.658256,291.691747 162.97093,293.447946 171.634973,293.447946 C184.982283,293.447946 196.631734,289.467229 206.583676,281.505676 C216.535617,273.544122 224.789751,263.94357 231.346324,252.70373 C231.346324,266.05104 234.683102,275.768672 241.356757,281.856919 C248.030412,287.945166 257.689504,290.989243 270.334324,290.989243 L281.222865,266.402216 C275.134618,266.402216 270.217262,265.055797 266.470649,262.362919 C262.724035,259.670041 260.850757,255.045384 260.850757,248.488811 C260.850757,246.849667 260.909297,245.269089 261.026378,243.747027 C261.14346,242.224965 261.31908,240.878546 261.553243,239.70773 L283.681568,115.016378 C276.890831,112.206418 268.285458,109.396501 257.865189,106.586541 C247.444921,103.776581 235.32715,102.371622 221.511514,102.371622 C204.651754,102.371622 189.080125,105.181539 174.796162,110.801459 C160.512199,116.421379 148.218808,124.265733 137.915622,134.334757 C127.612435,144.40378 119.592461,156.521551 113.855459,170.688432 C108.118458,184.855314 105.25,200.368402 105.25,217.228162 Z M250.742757,133.768865 L241.259189,188.211568 C239.385883,199.451408 236.575965,209.81298 232.829351,219.296595 C229.082738,228.78021 224.633701,236.975803 219.482108,243.883622 C214.330515,250.79144 208.535059,256.118576 202.095568,259.865189 C195.656076,263.611803 188.923981,265.485081 181.899081,265.485081 C176.513324,265.485081 171.303268,264.372822 166.268757,262.14827 C161.234245,259.923719 156.726669,256.586941 152.745892,252.137838 C148.765115,247.688735 145.545418,242.244519 143.086703,235.805027 C140.627988,229.365535 139.398649,221.930961 139.398649,213.501081 C139.398649,201.324588 141.271927,190.084916 145.018541,179.78173 C148.765154,169.478543 154.15083,160.58047 161.17573,153.087243 C168.20063,145.594017 176.630383,139.740021 186.465243,135.525081 C196.300103,131.310141 207.305615,129.202703 219.482108,129.202703 C226.272845,129.202703 232.0683,129.612482 236.868649,130.432054 C241.668997,131.251626 246.293653,132.363885 250.742757,133.768865 Z" id="Mask" fill="url(#linearGradient-1)"></path>
        <path d="M-7.47678866,321.989334 C23.8309718,348.146264 64.1413952,363.88775 108.12844,363.88775 C207.770493,363.88775 288.546338,283.111906 288.546338,183.469852 C288.546338,124.233339 259.998374,71.6645597 215.910091,38.7711605 C255.522493,71.8664508 280.722717,121.635615 280.722717,177.290606 C280.722717,276.93266 199.946873,357.708504 100.304819,357.708504 C59.8992809,357.708504 22.5960238,344.426062 -7.47682701,321.989302 Z" id="Combined-Shape-Copy" fill="#FFFFFF" opacity="0.531483209" transform="translate(151.499029, 192.089233) rotate(175.000000) translate(-151.499029, -192.089233) "></path>
        <path d="M104,219.810662 C104,202.957636 106.86152,187.450745 112.584646,173.289522 C118.307771,159.128299 126.308348,147.015369 136.586614,136.950368 C146.864881,126.885366 159.128538,119.044146 173.377953,113.426471 C187.627368,107.808795 203.161333,105 219.980315,105 C233.762536,105 245.850998,106.404398 256.246063,109.213235 C266.641128,112.022073 275.225688,114.830868 282,117.639706 L259.925197,242.28125 C259.6916,243.451599 259.516405,244.79748 259.399606,246.318934 C259.282808,247.840388 259.224409,249.420335 259.224409,251.058824 C259.224409,257.612778 261.093157,262.235587 264.830709,264.92739 C268.56826,267.619192 273.473723,268.965074 279.547244,268.965074 L268.685039,293.542279 C256.070803,293.542279 246.435073,290.499418 239.777559,284.413603 C233.120045,278.327788 229.791339,268.614037 229.791339,255.272059 C223.250623,266.507409 215.016454,276.104127 205.088583,284.0625 C195.160712,292.020873 183.539437,296 170.224409,296 C161.581322,296 153.288754,294.244503 145.346457,290.733456 C137.40416,287.222409 130.337957,282.189984 124.147638,275.636029 C117.957318,269.082075 113.051855,261.065305 109.431102,251.585478 C105.810349,242.105651 104,231.514152 104,219.810662 Z M247.311024,136.248162 C242.872681,134.843743 238.25921,133.731928 233.470472,132.912684 C228.681735,132.09344 222.900296,131.683824 216.125984,131.683824 C203.978942,131.683824 193.000049,133.79042 183.188976,138.003676 C173.377904,142.216933 164.968539,148.06859 157.96063,155.558824 C150.952721,163.049057 145.580071,171.943576 141.84252,182.242647 C138.104968,192.541718 136.23622,203.7769 136.23622,215.948529 C136.23622,224.375042 137.462586,231.806647 139.915354,238.243566 C142.368123,244.680486 145.580033,250.122527 149.551181,254.569853 C153.52233,259.017179 158.019004,262.352624 163.041339,264.576287 C168.063673,266.79995 173.261128,267.911765 178.633858,267.911765 C185.641767,267.911765 192.357579,266.039234 198.781496,262.294118 C205.205413,258.549001 210.986851,253.223993 216.125984,246.318934 C221.265118,239.413875 225.703393,231.221555 229.440945,221.741728 C233.178496,212.261901 235.981618,201.904468 237.850394,190.669118 L247.311024,136.248162 Z" id="Combined-Shape"></path>
    </g>
</svg>
